X: 1
T: La Bastringue
M: 4/4
L: 1/8
R: reel
K: Dmaj
|:f2 ff f2gf|e2c2 d3 d|c2d2 efec|d2e2 f2 d2|
f2 ff f2 gf|e2c2 d3d|g2 (3fgf e2d2|1B2c2 d2A2:|2B2c2 d2 (3ABc||
|:(3ddd fd adfd|(3=ccc ec gcec|(3ddd fd adfd|bgec dcBA|(3ddd fd adfd|
(3=ccc ec gcec|1(3ddd fd adfa|bgec dcBA:|2Adfa bgec|dfec d4||
